img/icons/facebook.svg

<?xml version="1.0" encoding="UTF-8"?>
<svg width="9px" height="21px" viewBox="0 0 9 21" version="1.1" xmlns="http://www.w3.org/2000/svg" xmlns:xlink="http://www.w3.org/1999/xlink">
    <!-- Generator: Sketch 48.2 (47327) - http://www.bohemiancoding.com/sketch -->
    <title>004-facebook-letter-logo</title>
    <desc>Created with Sketch.</desc>
    <defs></defs>
    <g id="Footer" stroke="none" stroke-width="1" fill="none" fill-rule="evenodd" transform="translate(-1083.000000, -143.000000)" opacity="0.5">
        <g fill="#FFFFFF" fill-rule="nonzero" id="Social-media">
            <g transform="translate(1083.000000, 142.000000)">
                <g id="004-facebook-letter-logo" transform="translate(0.000000, 1.000000)">
                    <path d="M1.94530246,4.06703138 C1.94530246,4.59624005 1.94530246,6.95832016 1.94530246,6.95832016 L0,6.95832016 L0,10.4937993 L1.94530246,10.4937993 L1.94530246,21 L5.94136667,21 L5.94136667,10.4940922 L8.62291129,10.4940922 C8.62291129,10.4940922 8.87404968,8.79885704 8.99578522,6.94528402 C8.64676518,6.94528402 5.95647712,6.94528402 5.95647712,6.94528402 C5.95647712,6.94528402 5.95647712,4.88845464 5.95647712,4.52793458 C5.95647712,4.16663334 6.39216927,3.68063435 6.82279471,3.68063435 C7.25261307,3.68063435 8.1597782,3.68063435 9,3.68063435 C9,3.19927368 9,1.53606735 9,0 C7.87832923,0 6.60223593,0 6.03974153,0 C1.84652405,-0.000244122461 1.94530246,3.53875037 1.94530246,4.06703138 Z" id="Facebook"></path>
                </g>
            </g>
        </g>
    </g>
</svg>

<svg xmlns="http://www.w3.org/2000/svg" width="9" height="21" viewBox="0 0 9 21"><path fill="#FFF" d="M1.945 4.067v2.891H0v3.536h1.945V21h3.996V10.494h2.682s.251-1.695.373-3.549h-3.04V4.528c0-.361.436-.847.867-.847H9V0H6.04C1.847 0 1.945 3.539 1.945 4.067z" opacity=".5"/></svg>
